data/cards/shapes/hexagon.svg

<svg width="512" height="512" viewBox="0 0 512 512" fill="none" xmlns="http://www.w3.org/2000/svg">
<path d="M330.323 3.87433e-10C339.667 -3.10866e-05 348.917 1.87071 357.526 5.50193C366.136 9.13315 373.931 14.4514 380.453 21.143L486.13 129.573C498.87 142.645 506 160.177 506 178.43V333.57C506 351.823 498.87 369.355 486.13 382.427L380.452 490.857C373.93 497.549 366.135 502.867 357.526 506.498C348.916 510.129 339.667 512 330.323 512H182.677C173.333 512 164.083 510.129 155.474 506.498C146.864 502.867 139.069 497.549 132.547 490.857L26.87 382.426C14.1299 369.354 6.99994 351.822 7 333.569L7 178.43C6.99994 160.177 14.1299 142.645 26.87 129.573L132.548 21.143C139.07 14.4515 146.865 9.13334 155.474 5.50213C164.084 1.87091 173.333 0.000102399 182.677 3.87417e-10L330.323 3.87433e-10Z" fill="#83DEFF"/>
<path d="M182.678 512.001C173.334 512.001 164.084 510.129 155.475 506.497C146.865 502.866 139.07 497.549 132.548 490.857L26.8689 382.427C14.1305 369.354 7.0015 351.822 7.00098 333.569V178.432C7.00012 160.178 14.1293 142.646 26.8689 129.574L132.548 21.1448C139.069 14.4522 146.864 9.1329 155.474 5.50128C164.084 1.86967 173.334 -0.000254003 182.678 0.000305301H255.999L78.582 175.44V327.972L262.607 511.999L182.678 512.001Z" fill="#7ACEFA"/>
</svg>

<svg xmlns="http://www.w3.org/2000/svg" width="512" height="512" fill="none"><path fill="#83DEFF" d="M330.323 0a69.997 69.997 0 0 1 50.13 21.143l105.677 108.43A70.001 70.001 0 0 1 506 178.43v155.14a70.001 70.001 0 0 1-19.87 48.857l-105.678 108.43A69.997 69.997 0 0 1 330.323 512H182.677a70.002 70.002 0 0 1-50.13-21.143L26.87 382.426A70 70 0 0 1 7 333.569V178.43a70 70 0 0 1 19.87-48.857l105.678-108.43A70.007 70.007 0 0 1 182.677 0h147.646Z"/><path fill="#7ACEFA" d="M182.678 512.001a69.986 69.986 0 0 1-27.203-5.504 69.987 69.987 0 0 1-22.927-15.64l-105.68-108.43a70.013 70.013 0 0 1-19.867-48.858V178.432a69.998 69.998 0 0 1 19.868-48.858l105.679-108.43A69.983 69.983 0 0 1 182.678 0h73.321L78.582 175.44v152.532l184.025 184.027-79.929.002Z"/></svg>
